polaris-icons/icons/new-icons/CapturePaymentMinor.svg

<svg width="20" height="20" viewBox="0 0 20 20" fill="none" xmlns="http://www.w3.org/2000/svg">
<path fill-rule="evenodd" clip-rule="evenodd" d="M10.75 3.25C10.75 2.83579 10.4142 2.5 10 2.5C9.5858 2.5 9.25001 2.83579 9.25001 3.25V5.34717L8.49389 4.68557C8.18216 4.41281 7.70834 4.44439 7.43558 4.75612C7.16282 5.06785 7.1944 5.54167 7.50613 5.81443L9.50613 7.56443C9.7889 7.81186 10.2111 7.81186 10.4939 7.56443L12.4939 5.81443C12.8056 5.54167 12.8372 5.06785 12.5644 4.75612C12.2917 4.44439 11.8179 4.41281 11.5061 4.68557L10.75 5.34717V3.25ZM12.4317 8.03099C12.9624 6.91064 14.2938 6.42329 15.4224 6.93627C16.5661 7.45617 17.07 8.80629 16.5465 9.94844L15.0189 13.2815C14.5677 14.2659 13.7937 15.0666 12.8251 15.5509L10.5854 16.6708C10.2149 16.856 9.76442 16.7058 9.57917 16.3354C9.39393 15.9649 9.5441 15.5144 9.91458 15.3291L12.1543 14.2093C12.817 13.8779 13.3466 13.3301 13.6553 12.6565L15.1829 9.32345C15.3605 8.93608 15.1896 8.47816 14.8017 8.30182C14.4189 8.12784 13.9673 8.29313 13.7873 8.67311L12.7851 10.7889C12.4319 11.5346 11.8468 12.1351 11.1291 12.5091C10.9337 12.6276 10.7184 12.7185 10.4877 12.7762L8.68192 13.2277L8.66941 13.2307L7.6819 13.4776C7.28005 13.578 6.87285 13.3337 6.77239 12.9319C6.67193 12.53 6.91625 12.1228 7.31809 12.0223L9.94179 11.3664C10.0967 11.3277 10.2455 11.273 10.3863 11.204C10.6088 11.0536 10.75 10.7996 10.75 10.5191C10.75 10.025 10.3195 9.64125 9.82863 9.69788L9.00698 9.79269C7.05283 10.0182 5.50878 11.5552 5.2744 13.5083L4.99467 15.8394C4.94532 16.2507 4.57192 16.5441 4.16065 16.4947C3.74939 16.4454 3.456 16.072 3.50536 15.6607L3.78509 13.3296C4.10218 10.6872 6.19119 8.60764 8.83504 8.30258L9.6567 8.20777C10.5632 8.10318 11.3966 8.53224 11.8626 9.23253L12.4317 8.03099Z" fill="#4A4A4A"/>
</svg>

<svg viewBox="0 0 20 20" xmlns="http://www.w3.org/2000/svg"><path fill-rule="evenodd" d="M10.75 3.25a.75.75 0 0 0-1.5 0v2.097l-.756-.661a.75.75 0 1 0-.988 1.128l2 1.75a.75.75 0 0 0 .988 0l2-1.75a.75.75 0 0 0-.988-1.128l-.756.661v-2.097Zm1.682 4.781a2.27 2.27 0 0 1 4.115 1.917l-1.528 3.333a4.75 4.75 0 0 1-2.194 2.27l-2.24 1.12a.75.75 0 0 1-.67-1.342l2.24-1.12a3.25 3.25 0 0 0 1.5-1.553l1.528-3.333a.77.77 0 0 0-1.396-.65l-1.002 2.116a3.75 3.75 0 0 1-1.656 1.72c-.195.119-.41.21-.641.267l-1.806.452-.013.003-.987.247a.75.75 0 0 1-.364-1.456l2.624-.656c.155-.038.303-.093.444-.162a.827.827 0 0 0-.557-1.506l-.822.095a4.25 4.25 0 0 0-3.733 3.715l-.28 2.331a.75.75 0 1 1-1.489-.178l.28-2.331a5.75 5.75 0 0 1 5.05-5.027l.822-.095a2.325 2.325 0 0 1 2.206 1.025l.569-1.202Z" fill="#5C5F62"/></svg>
